X: 21962
T: Kitty Lie Over
R: jig
M: 6/8
K: Dmajor
AFD DFA|Add B2 A|ABA F3|GFG E2 B|
AFD DFA|Add B2 A|ABA F2 E|EDD D3|
fdd ede|fdd d2 g|fdd def|gfg e2 g|
fed B3|AdF G3|ABA F2 E|EDD D3|

